packages/ui-icons/svg/Line/student-view.svg

<svg viewBox="0 0 1920 1920" version="1.1" xmlns="http://www.w3.org/2000/svg">
    <path d="M1395.06 1560c-165.36 0-300-134.64-300-300s134.64-300 300-300c165.12 0 299.4 134.16 299.88 299.04 0 .36.12.72.12.96 0 165.36-134.64 300-300 300zm-975 0c-165.48 0-300-134.64-300-300s134.52-300 300-300c165.36 0 300 134.64 300 300s-134.64 300-300 300zm1394.88-300.96c-.36-124.8-96.96-781.8-100.92-808.44-14.76-120-117.12-210.6-238.2-210.6h-155.76v120h155.76c60.48 0 111.72 45.24 119.28 106.68 15 101.88 42.84 297.24 65.4 470.64-72.6-59.88-164.28-97.32-265.44-97.32-210.96 0-384.48 157.08-414 360H833.94c-29.4-202.92-202.92-360-413.88-360-101.28 0-192.96 37.44-265.56 97.32 22.56-173.52 50.52-369.48 65.52-472.08 7.44-60 58.68-105.24 119.16-105.24h140.88V240H339.18c-121.08 0-223.44 90.6-237.96 209.28C97.02 477.24.06 1137 .06 1260c0 231.6 188.4 420 420 420 210.96 0 384.48-157.08 413.88-360h147.12c29.52 202.92 203.04 360 414 360 231.6 0 420-188.4 420-420 0-.24-.12-.6-.12-.96" stroke="none" stroke-width="1" fill-rule="evenodd"/>
</svg>

<svg viewBox="0 0 1920 1920" version="1.1" xmlns="http://www.w3.org/2000/svg">
    <path d="M1395.06,960 C1560.18,960 1694.46,1094.16 1694.94,1259.04 C1694.94,1259.34 1695.02333,1259.64 1695.05111,1259.87056 L1695.06,1260 C1695.06,1425.36 1560.42,1560 1395.06,1560 C1229.7,1560 1095.06,1425.36 1095.06,1260 C1095.06,1094.64 1229.7,960 1395.06,960 Z M420.06,960 C585.42,960 720.06,1094.64 720.06,1260 C720.06,1425.36 585.42,1560 420.06,1560 C254.58,1560 120.06,1425.36 120.06,1260 C120.06,1094.64 254.58,960 420.06,960 Z M1814.94,1259.04 C1814.58,1134.24 1717.98,477.24 1714.02,450.6 C1699.26,330.6 1596.9,240 1475.82,240 L1320.06,240 L1320.06,360 L1475.82,360 C1536.3,360 1587.54,405.24 1595.1,466.68 C1610.1,568.56 1637.94,763.92 1660.5,937.32 C1587.9,877.44 1496.22,840 1395.06,840 C1184.1,840 1010.58,997.08 981.06,1200 L833.94,1200 C804.54,997.08 631.02,840 420.06,840 C318.78,840 227.1,877.44 154.5,937.32 C177.06,763.8 205.02,567.84 220.02,465.24 C227.46,405.24 278.7,360 339.18,360 L480.06,360 L480.06,240 L339.18,240 C218.1,240 115.74,330.6 101.22,449.28 C97.02,477.24 0.06,1137 0.06,1260 C0.06,1491.6 188.46,1680 420.06,1680 C631.02,1680 804.54,1522.92 833.94,1320 L981.06,1320 C1010.58,1522.92 1184.1,1680 1395.06,1680 C1626.66,1680 1815.06,1491.6 1815.06,1260 C1815.06,1259.76 1814.94,1259.4 1814.94,1259.04" stroke="none" stroke-width="1" fill-rule="evenodd"/>
</svg>
